;FLAVOR:Marlin
;TIME:3025
;Filament used: 2.20336m
;Layer height: 0.15
;Generated with Cura_SteamEngine 4.0.0-BETA
M82 ;absolute extrusion mode
G21 ; set units to millimeters
G90 ; use absolute positioning
M82 ; absolute extrusion mode
M104 S215 ; set extruder temp
M140 S55 ; set bed temp
M190 S55 ; wait for bed temp
M109 S215 ; wait for extruder temp
G28 W ; home all without mesh bed level
G80 ; mesh bed leveling
G92 E0.0 ; reset extruder distance position
G1 Y-3.0 F1000.0 ; go outside print area
G1 X60.0 E9.0 F1000.0 ; intro line
G1 X100.0 E21.5 F1000.0 ; intro line
G92 E0.0 ; reset extruder distance position
G92 E0
G1 F2100 E-0.8
;LAYER_COUNT:257
;LAYER:0
M107
G0 F3600 X111.51 Y93.961 Z0.15
;TYPE:SKIRT
G1 F2100 E0
G1 F1800 X112.342 Y93.016 E0.03141
G1 X112.493 Y92.858 E0.03686
G1 X113.402 Y91.986 E0.06828
G1 X113.57 Y91.838 E0.07387
G1 X114.55 Y91.048 E0.10527
G1 X114.726 Y90.918 E0.11072
G1 X115.769 Y90.213 E0.14213
G1 X115.955 Y90.098 E0.14758
G1 X117.052 Y89.484 E0.17894
G1 X117.251 Y89.384 E0.1845
G1 X118.399 Y88.865 E0.21593
G1 X118.605 Y88.782 E0.22147
G1 X119.793 Y88.363 E0.25289
G1 X120.003 Y88.299 E0.25837
G1 X121.22 Y87.982 E0.28974
G1 X121.435 Y87.935 E0.29523
G1 X122.676 Y87.722 E0.32664
G1 X122.895 Y87.694 E0.33214
G1 X124.15 Y87.587 E0.36356
G1 X124.371 Y87.578 E0.36908
G1 X125.629 Y87.578 E0.40046
G1 X125.85 Y87.587 E0.40598
G1 X127.105 Y87.694 E0.4374
G1 X127.324 Y87.722 E0.44291
G1 X128.565 Y87.935 E0.47432
G1 X128.78 Y87.982 E0.47981
G1 X129.997 Y88.299 E0.51118
G1 X130.207 Y88.363 E0.51665
G1 X131.395 Y88.782 E0.54808
G1 X131.601 Y88.865 E0.55362
G1 X132.747 Y89.383 E0.58499
G1 X132.946 Y89.483 E0.59055
G1 X134.045 Y90.098 E0.62196
G1 X134.231 Y90.213 E0.62742
G1 X135.274 Y90.918 E0.65882
G1 X135.451 Y91.049 E0.66431
G1 X136.431 Y91.84 E0.69573
G1 X136.597 Y91.986 E0.70124
G1 X137.505 Y92.856 E0.73261
G1 X137.657 Y93.015 E0.7381
G1 X138.489 Y93.96 E0.76951
G1 X138.627 Y94.13 E0.77497
G1 X139.376 Y95.141 E0.80635
G1 X139.502 Y95.327 E0.81196
G1 X140.161 Y96.399 E0.84335
G1 X140.268 Y96.592 E0.84885
G1 X140.834 Y97.716 E0.88025
G1 X140.924 Y97.913 E0.88565
G1 X141.395 Y99.082 E0.91709
G1 X141.47 Y99.295 E0.92272
G1 X141.837 Y100.498 E0.95409
G1 X141.891 Y100.708 E0.9595
G1 X142.157 Y101.94 E0.99094
G1 X142.195 Y102.156 E0.99642
G1 X142.356 Y103.403 E1.02778
G1 X142.375 Y103.627 E1.03339
G1 X142.428 Y104.885 E1.0648
G1 X142.428 Y105.103 E1.07023
G1 X142.375 Y106.361 E1.10164
G1 X142.356 Y106.585 E1.10725
G1 X142.195 Y107.833 E1.13864
G1 X142.158 Y108.048 E1.14408
G1 X141.892 Y109.281 E1.17555
G1 X141.837 Y109.492 E1.18099
G1 X141.47 Y110.695 E1.21236
G1 X141.395 Y110.907 E1.21797
G1 X140.925 Y112.074 E1.24935
G1 X140.836 Y112.272 E1.25477
G1 X140.27 Y113.397 E1.28618
G1 X140.161 Y113.591 E1.29173
G1 X139.502 Y114.662 E1.3231
G1 X139.379 Y114.845 E1.3286
G1 X138.63 Y115.858 E1.36003
G1 X138.49 Y116.031 E1.36558
G1 X137.658 Y116.975 E1.39697
G1 X137.507 Y117.132 E1.4024
G1 X136.598 Y118.004 E1.43383
G1 X136.43 Y118.152 E1.43941
G1 X135.45 Y118.942 E1.47081
G1 X135.274 Y119.072 E1.47627
G1 X134.231 Y119.777 E1.50767
G1 X134.045 Y119.892 E1.51313
G1 X132.948 Y120.506 E1.54449
G1 X132.749 Y120.606 E1.55004
G1 X131.601 Y121.125 E1.58147
G1 X131.395 Y121.208 E1.58701
G1 X130.207 Y121.627 E1.61843
G1 X129.997 Y121.691 E1.62391
G1 X128.78 Y122.008 E1.65528
G1 X128.565 Y122.055 E1.66077
G1 X127.324 Y122.268 E1.69218
G1 X127.105 Y122.296 E1.69769
G1 X125.85 Y122.403 E1.72911
G1 X125.629 Y122.412 E1.73463
G1 X124.371 Y122.412 E1.76601
G1 X124.15 Y122.403 E1.77152
G1 X122.895 Y122.296 E1.80294
G1 X122.676 Y122.268 E1.80845
G1 X121.435 Y122.055 E1.83986
G1 X121.22 Y122.008 E1.84535
G1 X120.003 Y121.691 E1.87672
G1 X119.793 Y121.627 E1.8822
G1 X118.605 Y121.208 E1.91362
G1 X118.399 Y121.125 E1.91916
G1 X117.251 Y120.606 E1.95059
G1 X117.052 Y120.506 E1.95615
G1 X115.955 Y119.892 E1.98751
G1 X115.769 Y119.777 E1.99296
G1 X114.726 Y119.072 E2.02436
G1 X114.549 Y118.941 E2.02986
G1 X113.569 Y118.15 E2.06127
G1 X113.403 Y118.004 E2.06679
G1 X112.494 Y117.133 E2.09819
G1 X112.342 Y116.975 E2.10366
G1 X111.51 Y116.031 E2.13505
G1 X111.37 Y115.858 E2.1406
G1 X110.621 Y114.845 E2.17203
G1 X110.498 Y114.662 E2.17753
G1 X109.839 Y113.591 E2.2089
G1 X109.73 Y113.397 E2.21445
G1 X109.164 Y112.272 E2.24586
G1 X109.075 Y112.074 E2.25128
G1 X108.605 Y110.907 E2.28266
G1 X108.53 Y110.695 E2.28827
G1 X108.163 Y109.492 E2.31964
G1 X108.108 Y109.281 E2.32508
G1 X107.842 Y108.048 E2.35655
G1 X107.805 Y107.833 E2.36199
G1 X107.644 Y106.585 E2.39338
G1 X107.625 Y106.362 E2.39896
G1 X107.572 Y105.106 E2.43032
G1 X107.572 Y104.887 E2.43579
G1 X107.625 Y103.629 E2.46719
G1 X107.644 Y103.405 E2.4728
G1 X107.805 Y102.157 E2.50419
G1 X107.842 Y101.942 E2.50963
G1 X108.108 Y100.709 E2.5411
G1 X108.163 Y100.498 E2.54654
G1 X108.53 Y99.296 E2.57789
G1 X108.605 Y99.084 E2.5835
G1 X109.075 Y97.916 E2.6149
G1 X109.164 Y97.718 E2.62032
G1 X109.73 Y96.593 E2.65173
G1 X109.839 Y96.399 E2.65728
G1 X110.498 Y95.328 E2.68865
G1 X110.622 Y95.144 E2.69419
G1 X111.371 Y94.132 E2.72559
G1 X111.51 Y93.961 E2.73109
G0 F3600 X111.81 Y94.225
G1 F1800 X112.642 Y93.28 E2.7625
G1 X112.77 Y93.146 E2.76712
G1 X113.679 Y92.274 E2.79854
G1 X113.821 Y92.149 E2.80326
G1 X114.801 Y91.359 E2.83466
G1 X114.95 Y91.249 E2.83928
G1 X115.993 Y90.544 E2.87069
G1 X116.15 Y90.447 E2.87529
G1 X117.247 Y89.833 E2.90665
G1 X117.416 Y89.748 E2.91137
G1 X118.564 Y89.229 E2.9428
G1 X118.738 Y89.159 E2.94747
G1 X119.926 Y88.74 E2.9789
G1 X120.103 Y88.686 E2.98351
G1 X121.32 Y88.369 E3.01489
G1 X121.503 Y88.33 E3.01955
G1 X122.744 Y88.117 E3.05096
G1 X122.929 Y88.093 E3.05562
G1 X124.184 Y87.986 E3.08704
G1 X124.371 Y87.978 E3.0917
G1 X125.629 Y87.978 E3.12309
G1 X125.816 Y87.986 E3.12775
G1 X127.071 Y88.093 E3.15917
G1 X127.256 Y88.117 E3.16383
G1 X128.497 Y88.33 E3.19524
G1 X128.68 Y88.369 E3.19991
G1 X129.897 Y88.686 E3.23128
G1 X130.074 Y88.74 E3.23589
G1 X131.262 Y89.159 E3.26732
G1 X131.436 Y89.229 E3.27199
G1 X132.582 Y89.747 E3.30337
G1 X132.75 Y89.832 E3.30806
G1 X133.849 Y90.447 E3.33948
G1 X134.007 Y90.544 E3.3441
G1 X135.05 Y91.249 E3.37551
G1 X135.2 Y91.36 E3.38016
G1 X136.18 Y92.151 E3.41158
G1 X136.32 Y92.274 E3.41623
G1 X137.228 Y93.144 E3.4476
G1 X137.357 Y93.279 E3.45225
G1 X138.189 Y94.224 E3.48366
G1 X138.306 Y94.368 E3.48829
G1 X139.055 Y95.379 E3.51968
G1 X139.161 Y95.537 E3.52442
G1 X139.82 Y96.609 E3.55581
G1 X139.911 Y96.772 E3.56047
G1 X140.477 Y97.896 E3.59186
G1 X140.553 Y98.063 E3.59644
G1 X141.024 Y99.232 E3.62788
G1 X141.087 Y99.412 E3.63263
G1 X141.454 Y100.615 E3.66401
G1 X141.5 Y100.793 E3.66859
G1 X141.766 Y102.025 E3.70003
G1 X141.798 Y102.207 E3.70464
G1 X141.959 Y103.454 E3.73601
G1 X141.975 Y103.643 E3.74074
G1 X142.028 Y104.901 E3.77215
G1 X142.028 Y105.087 E3.77679
G1 X141.975 Y106.345 E3.8082
G1 X141.959 Y106.533 E3.8129
G1 X141.798 Y107.781 E3.84429
G1 X141.767 Y107.964 E3.84892
G1 X141.501 Y109.197 E3.88039
G1 X141.454 Y109.375 E3.88498
G1 X141.087 Y110.578 E3.91636
G1 X141.024 Y110.758 E3.92111
G1 X140.554 Y111.925 E3.9525
G1 X140.478 Y112.092 E3.95707
G1 X139.912 Y113.217 E3.98849
G1 X139.821 Y113.381 E3.99317
G1 X139.162 Y114.452 E4.02454
G1 X139.057 Y114.607 E4.02921
G1 X138.308 Y115.62 E4.06063
G1 X138.189 Y115.767 E4.06535
G1 X137.357 Y116.711 E4.09674
G1 X137.23 Y116.844 E4.10133
G1 X136.321 Y117.716 E4.13275
G1 X136.179 Y117.841 E4.13747
G1 X135.199 Y118.631 E4.16887
G1 X135.05 Y118.741 E4.17349
G1 X134.007 Y119.446 E4.20489
G1 X133.85 Y119.543 E4.20949
G1 X132.753 Y120.157 E4.24085
G1 X132.584 Y120.242 E4.24557
G1 X131.436 Y120.761 E4.277
G1 X131.262 Y120.831 E4.28168
G1 X130.074 Y121.25 E4.3131
G1 X129.897 Y121.304 E4.31772
G1 X128.68 Y121.621 E4.34909
G1 X128.497 Y121.66 E4.35376
G1 X127.256 Y121.873 E4.38517
G1 X127.071 Y121.897 E4.38982
G1 X125.816 Y122.004 E4.42124
G1 X125.629 Y122.012 E4.42591
G1 X124.371 Y122.012 E4.45729
G1 X124.184 Y122.004 E4.46196
G1 X122.929 Y121.897 E4.49338
G1 X122.744 Y121.873 E4.49803
G1 X121.503 Y121.66 E4.52944
G1 X121.32 Y121.621 E4.53411
G1 X120.103 Y121.304 E4.56548
G1 X119.926 Y121.25 E4.5701
G1 X118.738 Y120.831 E4.60152
G1 X118.564 Y120.761 E4.6062
G1 X117.416 Y120.242 E4.63763
G1 X117.247 Y120.157 E4.64235
G1 X116.15 Y119.543 E4.6737
G1 X115.993 Y119.446 E4.67831
G1 X114.95 Y118.741 E4.70971
G1 X114.8 Y118.63 E4.71437
G1 X113.82 Y117.839 E4.74578
G1 X113.68 Y117.715 E4.75045
G1 X112.771 Y116.844 E4.78185
G1 X112.643 Y116.711 E4.78646
G1 X111.811 Y115.767 E4.81785
G1 X111.692 Y115.62 E4.82256
G1 X110.943 Y114.607 E4.85399
G1 X110.838 Y114.452 E4.85866
G1 X110.179 Y113.381 E4.89003
G1 X110.088 Y113.217 E4.89471
G1 X109.522 Y112.092 E4.92612
G1 X109.446 Y111.925 E4.9307
G1 X108.976 Y110.758 E4.96208
G1 X108.913 Y110.578 E4.96684
G1 X108.546 Y109.375 E4.99821
G1 X108.499 Y109.197 E5.00281
G1 X108.233 Y107.964 E5.03427
G1 X108.202 Y107.781 E5.0389
G1 X108.041 Y106.533 E5.07029
G1 X108.025 Y106.345 E5.075
G1 X107.972 Y105.089 E5.10636
G1 X107.972 Y104.903 E5.111
G1 X108.025 Y103.645 E5.1424
G1 X108.041 Y103.457 E5.14711
G1 X108.202 Y102.209 E5.1785
G1 X108.233 Y102.026 E5.18313
G1 X108.499 Y100.793 E5.2146
G1 X108.546 Y100.615 E5.21919
G1 X108.913 Y99.413 E5.25054
G1 X108.976 Y99.234 E5.25527
G1 X109.446 Y98.066 E5.28668
G1 X109.522 Y97.898 E5.29128
G1 X110.088 Y96.773 E5.32269
G1 X110.179 Y96.609 E5.32737
G1 X110.838 Y95.538 E5.35874
G1 X110.944 Y95.382 E5.36345
G1 X111.693 Y94.37 E5.39485
G1 X111.81 Y94.225 E5.3995
G0 F3600 X112.11 Y94.49
G1 F1800 X112.942 Y93.545 E5.43091
G1 X113.047 Y93.435 E5.4347
G1 X113.956 Y92.563 E5.46612
G1 X114.072 Y92.461 E5.46998
G1 X115.052 Y91.671 E5.50138
G1 X115.174 Y91.581 E5.50516
G1 X116.217 Y90.876 E5.53656
G1 X116.346 Y90.796 E5.54035
G1 X117.443 Y90.182 E5.57171
G1 X117.58 Y90.113 E5.57553
G1 X118.728 Y89.594 E5.60696
G1 X118.871 Y89.536 E5.61081
G1 X120.059 Y89.117 E5.64223
G1 X120.204 Y89.073 E5.64601
G1 X121.421 Y88.756 E5.67739
G1 X121.571 Y88.724 E5.68121
G1 X122.812 Y88.511 E5.71262
G1 X122.963 Y88.492 E5.71642
G1 X124.218 Y88.385 E5.74784
G1 X124.371 Y88.378 E5.75166
G1 X125.629 Y88.378 E5.78304
G1 X125.782 Y88.385 E5.78686
G1 X127.037 Y88.492 E5.81828
G1 X127.188 Y88.511 E5.82208
G1 X128.429 Y88.724 E5.85348
G1 X128.579 Y88.756 E5.85731
G1 X129.796 Y89.073 E5.88868
G1 X129.941 Y89.117 E5.89246
G1 X131.129 Y89.536 E5.92389
G1 X131.271 Y89.594 E5.92771
G1 X132.417 Y90.112 E5.95908
G1 X132.555 Y90.181 E5.96293
G1 X133.654 Y90.796 E5.99435
G1 X133.783 Y90.876 E5.99813
G1 X134.826 Y91.581 E6.02954
G1 X134.949 Y91.671 E6.03334
G1 X135.929 Y92.462 E6.06476
G1 X136.043 Y92.563 E6.06855
G1 X136.951 Y93.433 E6.09992
G1 X137.057 Y93.544 E6.10375
G1 X137.889 Y94.489 E6.13516
G1 X137.984 Y94.606 E6.13892
G1 X138.733 Y95.617 E6.17031
G1 X138.82 Y95.746 E6.17419
G1 X139.479 Y96.818 E6.20558
G1 X139.554 Y96.951 E6.20939
G1 X140.12 Y98.075 E6.24078
G1 X140.182 Y98.212 E6.24453
G1 X140.653 Y99.381 E6.27597
G1 X140.705 Y99.529 E6.27988
G1 X141.072 Y100.732 E6.31126
G1 X141.109 Y100.877 E6.31499
G1 X141.375 Y102.109 E6.34643
G1 X141.401 Y102.259 E6.35023
G1 X141.562 Y103.506 E6.38159
G1 X141.575 Y103.66 E6.38545
G1 X141.628 Y104.918 E6.41686
G1 X141.628 Y105.07 E6.42065
G1 X141.575 Y106.328 E6.45206
G1 X141.562 Y106.482 E6.45591
G1 X141.401 Y107.73 E6.4873
G1 X141.376 Y107.88 E6.49109
G1 X141.11 Y109.113 E6.52256
G1 X141.072 Y109.258 E6.5263
G1 X140.705 Y110.461 E6.55767
G1 X140.653 Y110.608 E6.56156
G1 X140.183 Y111.775 E6.59295
G1 X140.121 Y111.912 E6.5967
G1 X139.555 Y113.037 E6.62811
G1 X139.48 Y113.171 E6.63194
G1 X138.821 Y114.242 E6.66331
G1 X138.735 Y114.369 E6.66714
G1 X137.986 Y115.382 E6.69856
G1 X137.889 Y115.502 E6.70241
G1 X137.057 Y116.446 E6.7338
G1 X136.953 Y116.555 E6.73756
G1 X136.044 Y117.427 E6.76898
G1 X135.928 Y117.529 E6.77283
G1 X134.948 Y118.319 E6.80423
G1 X134.826 Y118.409 E6.80802
G1 X133.783 Y119.114 E6.83942
G1 X133.654 Y119.194 E6.84321
G1 X132.557 Y119.808 E6.87457
G1 X132.42 Y119.877 E6.87839
G1 X131.272 Y120.396 E6.90982
G1 X131.129 Y120.454 E6.91367
G1 X129.941 Y120.873 E6.94509
G1 X129.796 Y120.917 E6.94887
G1 X128.579 Y121.234 E6.98024
G1 X128.429 Y121.266 E6.98407
G1 X127.188 Y121.479 E7.01548
G1 X127.037 Y121.498 E7.01928
G1 X125.782 Y121.605 E7.0507
G1 X125.629 Y121.612 E7.05452
G1 X124.371 Y121.612 E7.0859
G1 X124.218 Y121.605 E7.08972
G1 X122.963 Y121.498 E7.12114
G1 X122.812 Y121.479 E7.12493
G1 X121.571 Y121.266 E7.15634
G1 X121.421 Y121.234 E7.16017
G1 X120.204 Y120.917 E7.19154
G1 X120.059 Y120.873 E7.19532
G1 X118.871 Y120.454 E7.22674
G1 X118.728 Y120.396 E7.23059
G1 X117.58 Y119.877 E7.26202
G1 X117.443 Y119.808 E7.26585
G1 X116.346 Y119.194 E7.29721
G1 X116.217 Y119.114 E7.30099
G1 X115.174 Y118.409 E7.3324
G1 X115.051 Y118.319 E7.3362
G1 X114.071 Y117.528 E7.36762
G1 X113.957 Y117.427 E7.37141
G1 X113.048 Y116.556 E7.40282
G1 X112.943 Y116.446 E7.40661
G1 X112.111 Y115.502 E7.438
G1 X112.014 Y115.382 E7.44185
G1 X111.265 Y114.369 E7.47328
G1 X111.179 Y114.242 E7.4771
G1 X110.52 Y113.171 E7.50847
G1 X110.445 Y113.037 E7.5123
G1 X109.879 Y111.912 E7.54372
G1 X109.817 Y111.775 E7.54747
G1 X109.347 Y110.608 E7.57885
G1 X109.295 Y110.461 E7.58274
G1 X108.928 Y109.258 E7.61412
G1 X108.89 Y109.113 E7.61785
G1 X108.624 Y107.88 E7.64932
G1 X108.599 Y107.73 E7.65311
G1 X108.438 Y106.482 E7.6845
G1 X108.425 Y106.328 E7.68836
G1 X108.372 Y105.072 E7.71972
G1 X108.372 Y104.92 E7.72351
G1 X108.425 Y103.662 E7.75492
G1 X108.438 Y103.508 E7.75877
G1 X108.599 Y102.26 E7.79016
G1 X108.624 Y102.11 E7.79395
G1 X108.89 Y100.877 E7.82542
G1 X108.928 Y100.731 E7.82918
G1 X109.295 Y99.529 E7.86053
G1 X109.347 Y99.383 E7.8644
G1 X109.817 Y98.215 E7.89581
G1 X109.879 Y98.078 E7.89956
G1 X110.445 Y96.953 E7.93097
G1 X110.52 Y96.819 E7.9348
G1 X111.179 Y95.748 E7.96617
G1 X111.265 Y95.62 E7.97002
G1 X112.014 Y94.608 E8.00142
G1 X112.11 Y94.49 E8.00522
G0 F3600 X112.41 Y94.754
G1 F1800 X113.242 Y93.809 E8.03663
G1 X113.324 Y93.724 E8.03957
G1 X114.233 Y92.852 E8.07099
G1 X114.323 Y92.772 E8.074
G1 X115.303 Y91.982 E8.1054
G1 X115.398 Y91.912 E8.10834
G1 X116.441 Y91.207 E8.13975
G1 X116.541 Y91.145 E8.14268
G1 X117.638 Y90.531 E8.17404
G1 X117.745 Y90.477 E8.17703
G1 X118.893 Y89.958 E8.20846
G1 X119.004 Y89.914 E8.21144
G1 X120.192 Y89.495 E8.24286
G1 X120.305 Y89.46 E8.24581
G1 X121.522 Y89.143 E8.27718
G1 X121.638 Y89.118 E8.28014
G1 X122.879 Y88.905 E8.31155
G1 X122.997 Y88.89 E8.31452
G1 X124.252 Y88.783 E8.34594
G1 X124.371 Y88.778 E8.34891
G1 X125.629 Y88.778 E8.38029
G1 X125.748 Y88.783 E8.38326
G1 X127.003 Y88.89 E8.41468
G1 X127.121 Y88.905 E8.41765
G1 X128.362 Y89.118 E8.44906
G1 X128.478 Y89.143 E8.45202
G1 X129.695 Y89.46 E8.48339
G1 X129.808 Y89.495 E8.48634
G1 X130.996 Y89.914 E8.51776
G1 X131.107 Y89.958 E8.52074
G1 X132.253 Y90.476 E8.55211
G1 X132.36 Y90.53 E8.5551
G1 X133.459 Y91.145 E8.58652
G1 X133.559 Y91.207 E8.58945
G1 X134.602 Y91.912 E8.62086
G1 X134.697 Y91.983 E8.62382
G1 X135.677 Y92.774 E8.65523
G1 X135.767 Y92.852 E8.6582
G1 X136.675 Y93.722 E8.68957
G1 X136.757 Y93.808 E8.69254
G1 X137.589 Y94.753 E8.72394
G1 X137.663 Y94.845 E8.72689
G1 X138.412 Y95.856 E8.75828
G1 X138.48 Y95.956 E8.76129
G1 X139.139 Y97.028 E8.79268
G1 X139.196 Y97.131 E8.79562
G1 X139.762 Y98.255 E8.82701
G1 X139.811 Y98.362 E8.82995
G1 X140.282 Y99.531 E8.86139
G1 X140.322 Y99.645 E8.8644
G1 X140.689 Y100.848 E8.89577
G1 X140.718 Y100.962 E8.89871
G1 X140.984 Y102.194 E8.93015
G1 X141.004 Y102.31 E8.93308
G1 X141.165 Y103.557 E8.96445
G1 X141.176 Y103.677 E8.96746
G1 X141.229 Y104.935 E8.99886
G1 X141.229 Y105.053 E9.00181
G1 X141.176 Y106.311 E9.03322
G1 X141.165 Y106.431 E9.03622
G1 X141.004 Y107.679 E9.06761
G1 X140.985 Y107.795 E9.07054
G1 X140.719 Y109.028 E9.10201
G1 X140.689 Y109.142 E9.10495
G1 X140.322 Y110.345 E9.13632
G1 X140.282 Y110.459 E9.13934
G1 X139.812 Y111.626 E9.17072
G1 X139.764 Y111.732 E9.17362
G1 X139.198 Y112.857 E9.20504
G1 X139.139 Y112.962 E9.20804
G1 X138.48 Y114.033 E9.23941
G1 X138.414 Y114.131 E9.24236
G1 X137.665 Y115.144 E9.27379
G1 X137.589 Y115.238 E9.2768
